!!!COM: Gabriel Faure/
!!!CNT: Francais
!!!TXO: Francais
!!!OTL: Chant d'Automne
!!!OPS: Op. 5
!!!ONM: No. 1
!!!LYR: Charles Baudelaire
!!!ENC: Jacob Pegg
!!!YOR: Album of Twenty Songs (Vingt Me/lodies,) Volume I
!!!YOR: Edward B. Marks Music Corporation, RCA Building, Radio
!!!YOR: City, New York 20, N.Y.
!!!ODT: 1871
!!NB: Vocal melody and text only encoded.
!!NB: First instance of melodic material only encoded.
**kern	**silbe
*clef G2	*
*k[b-e-a-]	*
*M12/8	*
*MM[Andantino]	*
!!tempo marking of "andante" refers to dotted quarter, so quarter would be faster
!!created: 8/20/03 18:13
!!proofed and posted: 8/21/03 19:59
!!edit time: 60 min.
=10	=10
2.r	.
4.r	.
{4.g	{Bien-
=11	=11
[2.g	-to^t
4.g]	|
4.dd	nous
=12	=12
4dd	plon-
8ee-	-ge-
[4.dd	-rons
4.dd]}	|}
{4cc	{dans
8bn	les
=13	=13
[2.cc	froi-
4.cc]	|
4ee-	-des
8gg	te/-
=14	=14
2.gg	-ne\-
4.dd}	-bres}
4r	.
{8dd	{A-
=15	=15
2.ee-	-dieu,
4.ee-	vi-
4dd	-ve
8cc	clar-
=16	=16
[2.ff	-te/
4.ff]}	|}
{4.ee-	{de
=17	=17
4.dd	nos
4.b-	e/-
[4.dd	-te/s
4dd]	|
8cc	trop
=18	=18
1.b-}	courts!}
=19	=19
{4.b-	{J'en-
4b-	-tends
8b-	de/-
[4.cc	-ja\
4cc]	|
8f	tom-
=20	=20
1.dd}	-ber,}
=21	=21
{4.cc	{a-
4cc	-vec
8cc	un
[4.dd	choc
4dd]	|
8g	fu-
=22	=22
[2.een	-ne\-
4.een]	|
4.een}	-bre.}
=23	=23
4r	.
8r	.
{4.dd	{Le
4ee-	bois
8ee-	re-
4an	-ten-
8an	-tis-
=24	=24
2.dd	-sant
4.dd	sur
4cc	le
8g	pa-
=25	=25
[2.b-	-ve/
4.b-]	|
4.an	des
=26	=26
2.g}	cours.}
4.r	.
{4.g	{J'e/
=27	=27
[2.g	cou-
4.g]	|
4.dd	-te en
=28	=28
4dd	fre/-
8ee-	-mis-
2.dd}	-sant}
{4cc	{cha-
8bn	-que
=29	=29
2.cc	bu\-
4.ee-	-che
4.gg	qui
=30	=30
2.gg	tom-
2.dd}	-be;}
=31	=31
4r	.
8r	.
{4ee-	{L'e/-
8ee-	-cha-
4.ee-	-faud
4dd-	qu'on
8cc	ba^-
=32	=32
[2.ee-	-tit
4.ee-]}	|}
{4.dd-	{n'a
=33	=33
4.cc	pas
4.a-	d'e/-
[4.cc	-cho
4cc]	|
8b-	plus
=34	=34
[2.a-	sourd.
4.a-]}	|}
4r	.
8r	.
=35	=35
4r	.
8r	.
{4a-	{Mon
8a-	es-
4.cc	-prit
4b-	est
8a-	pa-
=36	=36
2.a-}	-reil}
2r	.
4r	.
=37	=37
4r	.
8r	.
{4a-	{a\
8a-	la
4.cc	tour
4b-	qui
8a-	suc-
=38	=38
2.cc	-com-
2.cc}	-be}
=39	=39
4r	.
8r	.
{4cc	{Sous
8dd	les
4.ee-	coups
4dd	du
8cc	be/-
=40	=40
[2.cc	-lier
4cc]}	|}
{8cc	{in-
4dd	-fa-
8ee-	-ti-
=41	=41
[2.g	-ga-
4.g]	|
4.f	-ble et
=42	=42
2.e-}	lourd;}
4r	.
2r	.
=43	=43
4r	.
8r	.
{4b-	{Il
8b-	me
4.cc	sem-
4dd	-ble,
8cc	ber-
=44	=44
4.b-	-ce/
4an	par
8g	ce
4.cc	choc
4dd	mo-
8cc	-no-
=45	=45
2.ee-	-to-
2.an}	-ne}
=46	=46
4r	.
8r	.
{4.b-	{Qu'on
4cc	cloue
8cc	en
4dd	gran-
8cc	-de
=47	=47
4.b-	ha^te
4an	un
8g	cer-
4.cc	-cueil
4dd	quel-
8ee-	-que
=48	=48
1.dd}	part!}
=49	=49
2.r	.
4r	.
8r	.
{4.g	{Pour
=50	=50
2.g}	qui?}
4r	.
{8g	{c'e/-
4g	-tait
8cc	hi-
=51	=51
4bn	-er
8an	l'e/-
[4.g	-te/,
8g]}	|}
8r	.
8r	.
{8g	{voi-
8b-	-ci
8a-	l'au-
=52	=52
4.a-	-tom-
2.g}	-ne!}
{4.g	{Ce
=53	=53
4bn	bruit
8bn	my-
4an	-ste/-
8g	-ri-
2.dd	-eux
=54	=54
4.dd	son-
[4.g	-ne
4g]	|
8g	comme
4an	on
8bn	de/-
=55	=55
1.bn}	-part!}
=56	=56
1.r	.
=57	=57
*k[]	*
*M9/8	*
*MM75	*
1r	.
8r	.
=58	=58
8r	.
1r	.
=59	=59
{4.ff	{J'ai-
4.ee	-me,
8dd	de
8cc	vos
8a	longs
=60	=60
[4.ff	yeux
8ff]	|
8ee	la
8dd	lu-
8cc	-mie\-
8b	-re
8cc	ver-
=61	=61
4.ee	-da^-
2.dd}	-tre,}
=62	=62
4r	.
8r	.
4r	.
8r	.
{8dd	{Dou-
8cc	-ce
8b	beau-
=63	=63
2.a}	-te/!}
8r	.
4r	.
=64	=64
4r	.
8r	.
{[4.ee	{mais
8ee]	|
8dd	au-
8cc	-jour-
=65	=65
[4.b	-d'hui
4b]	|
8e	tout
4a	m'est
8g#	a-
=66	=66
[2.g#	-mer
4.g#]}	|}
=67	=67
1r	.
8r	.
=68	=68
{4.ff	{Et
4.ee	rien,
8dd	ni
8cc	votre
8a	a-
=69	=69
4.ff	-mour,
8ee	ni
8dd	le
8cc	bou-
[4b	-doir,
16b]	|
16cc	ni
=70	=70
4.ee	l'a^-
2.dd}	-tre,}
=71	=71
{4dd	{Ne
8dd	me
4.dd	vaut
4ff	le
8ff	so-
=72	=72
2.ee	-leil
4ff	ray-
8ff#	-on-
=73	=73
(4.gg	-nant
4.a)	|
4dd	sur
8cc	la
=74	=74
[2.cc	mer!
4.cc_	|
=75	=75
2.cc]}	|}
8r	.
4r	.
*-	*-
